webapp/icons/HomeIcon.svg

<svg width="42" height="42" viewBox="0 0 42 42" fill="none" xmlns="http://www.w3.org/2000/svg">
<path d="M15.75 36.75H12.25C8.384 36.75 5.25 33.6159 5.25 29.75V18.7383C5.25 16.2905 6.52857 14.0206 8.62188 12.7519L17.3719 7.44886C19.6019 6.09737 22.3981 6.09737 24.6281 7.44886L33.3781 12.7519C35.4715 14.0206 36.75 16.2905 36.75 18.7383V29.75C36.75 33.6159 33.6159 36.75 29.75 36.75H26.25M15.75 36.75V29.75C15.75 26.8504 18.1004 24.5 21 24.5C23.8996 24.5 26.25 26.8504 26.25 29.75V36.75M15.75 36.75H26.25" stroke="white" stroke-width="2.8" stroke-linecap="round" stroke-linejoin="round"/>
</svg>

<svg xmlns="http://www.w3.org/2000/svg" width="42" height="42" fill="none" viewBox="0 0 42 42">
  <path stroke="#8C00FA" stroke-linecap="round" stroke-linejoin="round" stroke-width="2.8" d="M15.75 36.75h-3.5a7 7 0 0 1-7-7V18.738a7 7 0 0 1 3.372-5.986l8.75-5.303a7 7 0 0 1 7.256 0l8.75 5.303a7 7 0 0 1 3.372 5.986V29.75a7 7 0 0 1-7 7h-3.5m-10.5 0v-7a5.25 5.25 0 1 1 10.5 0v7m-10.5 0h10.5"/>
</svg>
